X: 1
N: Major Ian Stewart
N: 32J 3C x 8 (RSCDS Book 35)
P: The Marchioness Of Tullibardine
C: or The Scottish Horse
C: arr. Terry Traub 11-26-1998
R: Jig
M: 6/8
K: A
L: 1/8
|: A/B/|"A"c3 ecA|"D"def a2 f|"A"edc cAe|"E"B3 B2 A/B/|"A"c3 ecA |"D"def afd|"A"ecA "E"B2 e|"A"A3 A2 :|
e|"A"a2 e A2 e|"D"d2 f a2 f|"A"edc cAe|"E"B3 B2 A/B/|c3 ecA|"D"def a2 f|"A"ecA "E"B2 e|"A"A3 A2 e|
"A"a2 e A2 e|"D"d2 f a2 f|"A"edc cAe|"Bm"B3 "E"B2 e/d/|"A"caA eaA|"D"faA dfA|"A"ceA "E"B2 e|"A"A3 A2 |]
